T: Valley Of The Moon
M: 4/4
L: 1/8
K: Amaj
c~E3 FEFA|cAeA f2ef|fafe cfec|B2AB cBAB|
c~E3 FEFA|cAeA f2ef|fafe cfec|1BAcB BAAB:|2BAcB BAce||
f3 f3ef|afec B2AB|c~E3 FEFA|-AB2A cBBA|
[1f3 f3ef|afec B2AB|c~E3 FEFA|BAcB BAce:|
[2a3 a3fe|afec B2AB|c~E3 FEFA|BAcB BAAB||
"(Variation 1st bar)" |A~E3 cBAB|
